modules/hawcons-stroke/icons/icon-38-clipboard-checked.svg

<?xml version="1.0" encoding="UTF-8" standalone="no"?>
<svg width="32px" height="32px" viewBox="0 0 32 32" version="1.1" xmlns="http://www.w3.org/2000/svg" xmlns:xlink="http://www.w3.org/1999/xlink" xmlns:sketch="http://www.bohemiancoding.com/sketch/ns">
    <!-- Generator: Sketch 3.0.3 (7891) - http://www.bohemiancoding.com/sketch -->
    <title>icon 38 clipboard checked</title>
    <desc>Created with Sketch.</desc>
    <defs></defs>
    <g id="Page-1" stroke="none" stroke-width="1" fill="none" fill-rule="evenodd" sketch:type="MSPage">
        <g id="icon-38-clipboard-checked" sketch:type="MSArtboardGroup" fill="#929292">
            <path d="M12,5 L12,3.99791312 C12,2.89826062 12.897616,2 14.0048815,2 L14.9951185,2 C16.1061002,2 17,2.89449617 17,3.99791312 L17,5 L19.0044225,5 C19.555163,5 20,5.44724809 20,5.99895656 L20,7.00104344 C20,7.55733967 19.5542648,8 19.0044225,8 L9.9955775,8 C9.44483697,8 9,7.55275191 9,7.00104344 L9,5.99895656 C9,5.44266033 9.44573523,5 9.9955775,5 L12,5 L12,5 Z M11.0000005,4 L10.0027601,4 C8.89828672,4 8.00262776,4.89128252 8.00000577,6 L6.99742191,6 C5.89427625,6 5,6.88976324 5,8.00359486 L5,28.9964051 C5,30.10296 5.89092539,31 6.99742191,31 L22.0025781,31 C23.1057238,31 24,30.1102368 24,28.9964051 L24,8.00359486 C24,6.89703997 23.1090746,6 22.0025781,6 L20.9999942,6 L20.9999942,6 C20.9973726,4.89497907 20.1048269,4 18.9972399,4 L17.9999995,4 C17.9990959,2.34299141 16.6497738,1 14.9907455,1 L14.0092545,1 C12.3478441,1 11.0008998,2.33812603 11.0000005,4 L11.0000005,4 L11.0000005,4 Z M20.9999942,7 L22.0000398,7 C22.5452911,7 23,7.44908998 23,8.00307055 L23,28.9969294 C23,29.5610822 22.5523026,30 22.0000398,30 L6.9999602,30 C6.45470893,30 6,29.55091 6,28.9969294 L6,8.00307055 C6,7.43891776 6.44769743,7 6.9999602,7 L8.00000579,7 C8.00262739,8.10502093 8.89517314,9 10.0027601,9 L18.9972399,9 C20.1017133,9 20.9973722,8.10871748 20.9999942,7 L20.9999942,7 L20.9999942,7 Z M14.5,5 C14.7761424,5 15,4.77614239 15,4.5 C15,4.22385761 14.7761424,4 14.5,4 C14.2238576,4 14,4.22385761 14,4.5 C14,4.77614239 14.2238576,5 14.5,5 L14.5,5 Z M13.253553,23.6852821 L21.0317276,15.9071075 L20.3246208,15.2000008 L13.253553,22.2710686 L9.51091232,18.5284279 L8.80380554,19.2355347 L13.253553,23.6852821 L13.253553,23.6852821 Z" id="clipboard-checked" sketch:type="MSShapeGroup"></path>
        </g>
    </g>
</svg>

<svg width="32" height="32" xmlns="http://www.w3.org/2000/svg"><path d="M12 5V3.998C12 2.898 12.898 2 14.005 2h.99C16.106 2 17 2.894 17 3.998V5h2.004c.551 0 .996.447.996.999v1.002a.994.994 0 0 1-.996.999H9.996A.997.997 0 0 1 9 7.001V5.999C9 5.443 9.446 5 9.996 5H12zm-1-1h-.997c-1.105 0-2 .891-2.003 2H6.997C5.894 6 5 6.89 5 8.004v20.992C5 30.103 5.89 31 6.997 31h15.006C23.106 31 24 30.11 24 28.996V8.004C24 6.897 23.11 6 22.003 6H21a2.002 2.002 0 0 0-2.003-2H18c0-1.657-1.35-3-3.01-3h-.98A3.002 3.002 0 0 0 11 4zm10 3h1c.545 0 1 .45 1 1.003v20.994A.995.995 0 0 1 22 30H7c-.545 0-1-.45-1-1.003V8.003A.995.995 0 0 1 7 7h1c.003 1.105.895 2 2.003 2h8.994c1.105 0 2-.891 2.003-2zm-6.5-2a.5.5 0 1 0 0-1 .5.5 0 0 0 0 1zm-1.246 18.685l7.778-7.778-.707-.707-7.071 7.071-3.743-3.743-.707.708 4.45 4.45z" fill="#929292" fill-rule="evenodd"/></svg>
